app/_includes/svgs/client-logos/logo_tictail.min.svg

<svg xmlns="http://www.w3.org/2000/svg" viewBox="0 0 250 100" enable-background="new 0 0 250 100"><g><path d="M.017 35.733h10.434v41.655h13.911v-41.655h10.433v-11.303h-34.778z"/><path d="M38.826 37.156h14.227v39.995h-14.227z"/><path d="M51.631 23.245c-1.186-.948-3.083-1.66-5.691-1.66s-4.505.474-5.691 1.66c-1.186.948-1.897 2.608-1.897 4.742 0 4.268 2.608 6.165 7.588 6.165s7.588-2.134 7.588-6.165c0-2.134-.474-3.794-1.897-4.742zm39.046 40.706c-3.557 1.897-8.062 3.083-11.145 3.083-4.98 0-7.825-3.32-7.825-9.959v-.475c0-6.639 2.845-9.959 7.825-9.959 1.897 0 4.031.237 6.402.948l.474-.948 4.031-8.299c-3.794-1.897-8.774-2.608-12.33-2.608-6.639 0-11.856 1.897-15.413 5.454-3.557 3.557-5.454 8.774-5.454 15.65v.474c0 6.877 1.897 12.093 5.454 15.65 3.557 3.557 8.536 5.454 15.413 5.454 4.505 0 10.908-1.186 14.702-4.031-1.423-2.925-1.897-6.403-2.134-10.434zm86.392-40.706c-1.186-.948-3.083-1.66-5.691-1.66-2.608 0-4.505.474-5.691 1.66-1.186.948-1.897 2.608-1.897 4.742 0 4.268 2.608 6.165 7.588 6.165s7.588-2.134 7.588-6.165c-.317-2.134-.554-3.794-1.897-4.742z"/><path d="M164.027 37.156h14.227v39.995h-14.227z"/><path d="M183.392 21.822h14.227v55.645h-14.227z"/><path d="M112.888 67.033c-2.608 0-3.794-1.423-3.794-4.031v-15.176h10.196v-10.67h-10.196v-9.248h-9.248l-9.485 19.839h4.268v16.124c0 4.742.949 8.536 3.083 10.671 2.134 2.371 5.454 3.557 10.433 3.557 2.371 0 4.031-.237 5.928-.474 1.66-.237 3.557-.949 5.454-1.66-2.134-2.371-3.32-5.691-3.557-9.485-1.186.395-2.134.553-3.082.553zm24.186-21.499c3.794 0 6.639 1.186 7.114 3.794v1.897l-6.877.237c-5.691.237-10.196 1.423-13.279 3.557s-4.505 5.454-4.505 9.722 1.186 7.588 3.32 9.722c2.134 2.371 5.217 3.557 9.248 3.557 3.083 0 5.691-.474 7.588-1.423 1.897-.949 4.031-2.608 5.928-4.98h.237l2.608 5.454h9.959v-26.952c0-4.742-1.423-8.299-4.268-10.908-2.608-2.371-5.928-3.557-10.433-3.794h-5.454c-1.186 0-2.371 0-3.557.237-3.557.474-7.588 1.186-9.485 2.134v9.722c2.845-1.423 6.639-2.134 9.485-2.134h1.186l1.185.158zm7.272 16.757c0 1.66-.711 3.083-1.897 4.268-1.186 1.186-2.608 1.66-4.505 1.66-2.608 0-4.031-1.186-4.031-3.794 0-3.32 2.371-4.98 7.114-5.217l3.32-.237v3.32h-.001z"/></g></svg>

<svg xmlns="http://www.w3.org/2000/svg" viewBox="0 0 250 100" enable-background="new 0 0 250 100"><g><path d="M0.017 35.733L10.451 35.733 10.451 77.388 24.362 77.388 24.362 35.733 34.795 35.733 34.795 24.43 0.017 24.43z"/><path d="M38.826 37.156H53.053V77.151H38.826z"/><path d="M51.631,23.245c-1.186-0.948-3.083-1.66-5.691-1.66s-4.505,0.474-5.691,1.66c-1.186,0.948-1.897,2.608-1.897,4.742 c0,4.268,2.608,6.165,7.588,6.165s7.588-2.134,7.588-6.165C53.528,25.853,53.054,24.193,51.631,23.245L51.631,23.245z M90.677,63.951c-3.557,1.897-8.062,3.083-11.145,3.083c-4.98,0-7.825-3.32-7.825-9.959V56.6c0-6.639,2.845-9.959,7.825-9.959 c1.897,0,4.031,0.237,6.402,0.948l0.474-0.948l4.031-8.299c-3.794-1.897-8.774-2.608-12.33-2.608 c-6.639,0-11.856,1.897-15.413,5.454c-3.557,3.557-5.454,8.774-5.454,15.65v0.474c0,6.877,1.897,12.093,5.454,15.65 c3.557,3.557,8.536,5.454,15.413,5.454c4.505,0,10.908-1.186,14.702-4.031C91.388,71.46,90.914,67.982,90.677,63.951 L90.677,63.951z M177.069,23.245c-1.186-0.948-3.083-1.66-5.691-1.66c-2.608,0-4.505,0.474-5.691,1.66 c-1.186,0.948-1.897,2.608-1.897,4.742c0,4.268,2.608,6.165,7.588,6.165c4.98,0,7.588-2.134,7.588-6.165 C178.649,25.853,178.412,24.193,177.069,23.245L177.069,23.245z"/><path d="M164.027 37.156H178.254V77.151H164.027z"/><path d="M183.392 21.822H197.619V77.467H183.392z"/><path d="M112.888,67.033c-2.608,0-3.794-1.423-3.794-4.031V47.826h10.196V37.156h-10.196v-9.248h-9.248l-9.485,19.839h4.268 v16.124c0,4.742,0.949,8.536,3.083,10.671c2.134,2.371,5.454,3.557,10.433,3.557c2.371,0,4.031-0.237,5.928-0.474 c1.66-0.237,3.557-0.949,5.454-1.66c-2.134-2.371-3.32-5.691-3.557-9.485C114.784,66.875,113.836,67.033,112.888,67.033 L112.888,67.033z M137.074,45.534c3.794,0,6.639,1.186,7.114,3.794v1.897l-6.877,0.237c-5.691,0.237-10.196,1.423-13.279,3.557 c-3.083,2.134-4.505,5.454-4.505,9.722s1.186,7.588,3.32,9.722c2.134,2.371,5.217,3.557,9.248,3.557 c3.083,0,5.691-0.474,7.588-1.423c1.897-0.949,4.031-2.608,5.928-4.98h0.237l2.608,5.454h9.959V50.119 c0-4.742-1.423-8.299-4.268-10.908c-2.608-2.371-5.928-3.557-10.433-3.794h-5.454c-1.186,0-2.371,0-3.557,0.237 c-3.557,0.474-7.588,1.186-9.485,2.134v9.722c2.845-1.423,6.639-2.134,9.485-2.134h1.186L137.074,45.534L137.074,45.534z M144.346,62.291c0,1.66-0.711,3.083-1.897,4.268c-1.186,1.186-2.608,1.66-4.505,1.66c-2.608,0-4.031-1.186-4.031-3.794 c0-3.32,2.371-4.98,7.114-5.217l3.32-0.237V62.291L144.346,62.291z"/></g></svg>
